X:1
T:Title
%%score ( 1 2 ) { 3 | 4 }
L:1/8
M:4/4
K:D
V:1 treble nm="Grand Piano, Piano"
V:2 treble 
V:3 bass nm="Grand Piano, Piano"
V:4 bass 
V:1
 z4 z2[Q:1/4=100] z E | [DF]2 [DF]2 [B,G]2 [CF][CE] | D2 [B,E]2 [CF]2 F^G | [CA]2 [EA]2 [DF]2 D2 | %4
w: didst~|leave~ Thy~ throne~ and~ Thy~|king ly~ crown,~ Whe~ Thou~|cam est~ earth~ for~|
 [CE]6 [CE][CE] |[M:3/4] [DF]2 F2 [F^G]2 |[M:1/4] [=F^G][FG] |[M:4/4] [CA]2 [DA]2 [DB]2 [DB]2 | %8
w: me;~ But~ in~|Beth le home~|was~ there~|found~ no~ room~ For~|
 [Cc]2 [EA]2 B3 c |[M:3/4] [CA]6 |[M:1/4] [CA]2 |[M:4/4] [DA]2 [DF][CG] [DA]2 [Fd]2 | %12
w: ho ly~ ti vi|ty.~|1\-4.~O~|come~ to~ my~ heart,~ Lord~|
 [Gd]4 [Gc]2 [EB][EB] | [FA]2 D[DE] [DF]2 [CE]2 |[M:3/4] D6 |] %15
w: Je sus,~ There~ is~|room~ in~ my~ heart~ for~|Thee.~|
V:2
 z4 z2 D2 | x8 | z4 z2 D2 | x8 | x8 |[M:3/4] x6 |[M:1/4] x2 |[M:4/4] x8 | z4 E2 D2 |[M:3/4] x6 | %10
[M:1/4] x2 |[M:4/4] x8 | x8 | x8 |[M:3/4] x6 |] %15
V:3
 z4 z2 F,G, | A,2 B,2 G,2 A,G, | F,2 B,2 ^A,2 B,2 | E,2 A,2 A,2 A,2 | A,6 A,A, | %5
[M:3/4] A,2 A,2 B,2 |[M:1/4] B,B, |[M:4/4] A,2 A,2 A,2 ^G,2 | A,2 A,2 A,2 ^G,2 |[M:3/4] A,6 | %10
[M:1/4] G,2 |[M:4/4] F,2 A,A, A,2 A,2 | A,4 A,2 CC | D2 ^G,G, A,2 A,=G, |[M:3/4] F,6 |] %15
V:4
 z4 z2 D,2 | D,2 B,,2 E,2 A,,A,, | B,,2 G,,2 F,,2 B,,2 | A,,2 C,2 D,2 F,2 | z4 z2 A,,A,, | %5
[M:3/4] D,2 D,2 C,2 |[M:1/4] C,C, |[M:4/4] F,2 =F,2 E,2 E,2 | A,,2 C,2 E,2 E,2 |[M:3/4] A,,6 | %10
[M:1/4] A,,2 |[M:4/4] D,2 D,E, F,2 D,2 | E,4 E,2 G,G, | F,2 B,,B,, A,,2 A,,2 |[M:3/4] D,6 |] %15

